dist/images/svg/sprite/icon-tme.svg

<svg width="25" height="24" viewBox="0 0 25 24" fill="none" xmlns="http://www.w3.org/2000/svg">
<g clip-path="url(#clip0_22_1496)">
<path opacity="0.6" fill-rule="evenodd" clip-rule="evenodd" d="M12.5 24C19.127 24 24.5 18.627 24.5 12C24.5 5.373 19.127 0 12.5 0C5.873 0 0.5 5.373 0.5 12C0.5 18.627 5.873 24 12.5 24ZM14.8237 8.2264C13.929 8.59794 9.62982 10.3833 6.2765 11.8585C5.405 12.242 5.192 12.641 6.0895 12.949C6.11088 12.9564 6.13534 12.9648 6.1626 12.9742C6.43245 13.0673 6.97725 13.2552 7.534 13.415C8.345 13.648 8.797 13.5015 9.2675 13.182C9.579 12.9705 12.026 11.346 13.791 10.1755C13.989 10.044 14.2045 10.3135 14.033 10.4775C12.7235 11.7265 11.043 13.3315 10.7865 13.5825C10.0942 14.2599 10.5975 14.6169 11.0074 14.9078C11.0241 14.9196 11.0407 14.9314 11.057 14.943C11.5135 15.2695 13.616 16.66 14.0325 16.935C14.8985 17.5065 15.4495 17.35 15.695 16.029C15.9827 14.4808 16.3212 12.28 16.5613 10.7187C16.6667 10.0336 16.7531 9.47168 16.808 9.14201C17.0585 7.63801 16.556 7.50801 14.9185 8.18701C14.8932 8.19753 14.8615 8.2107 14.8237 8.2264Z" fill="white"/>
</g>
<defs>
<clipPath id="clip0_22_1496">
<rect width="24" height="24" fill="white" transform="translate(0.5)"/>
</clipPath>
</defs>
</svg>

<svg width="25" height="24" fill="none" xmlns="http://www.w3.org/2000/svg"><g clip-path="url(#a)"><path opacity=".6" fill-rule="evenodd" clip-rule="evenodd" d="M12.5 24c6.627 0 12-5.373 12-12s-5.373-12-12-12S.5 5.373.5 12s5.373 12 12 12Zm2.324-15.774c-.895.372-5.194 2.157-8.547 3.632-.872.384-1.085.783-.188 1.091l.074.025c.27.093.814.281 1.371.441.811.233 1.263.087 1.734-.233.311-.212 2.758-1.836 4.523-3.007.198-.131.413.138.242.302a962.399 962.399 0 0 0-3.246 3.105c-.693.678-.19 1.035.22 1.326l.05.035c.457.327 2.559 1.717 2.976 1.992.866.572 1.417.415 1.662-.906.288-1.548.626-3.749.866-5.31.106-.685.192-1.247.247-1.577.25-1.504-.252-1.634-1.89-.955l-.094.04Z" fill="#fff"/></g><defs><clipPath id="a"><path fill="#fff" transform="translate(.5)" d="M0 0h24v24H0z"/></clipPath></defs></svg>
